icon/lg/rax.svg

<?xml version="1.0" encoding="UTF-8"?>
<svg viewBox="0 0 256 257" version="1.1" xmlns="http://www.w3.org/2000/svg" xmlns:xlink="http://www.w3.org/1999/xlink" preserveAspectRatio="xMidYMid" height="1em" width="1em">
  <g>
    <path d="M0.610648945,0.666966355 L63.4580282,64.7259611 L166.962032,63.9622748 C166.962032,63.9622748 190.079993,65.7495835 190.079993,94.1732312 C190.079993,122.596878 170.470166,124.642108 170.470166,124.642108 L127.738364,125.788645 L186.298915,187.01253 C186.298915,187.01253 256,171.198777 256,94.4130164 C256,17.6272558 176.607393,0 176.607393,0 L0.610648945,0.666966355 Z M0,126.312546 L89.6506243,126.312546 L217.247963,254.672336 L126.596414,256.43345 L0,126.312546 Z" fill="#F76927"/>
  </g>
</svg>

<svg width="256" height="257" xmlns="http://www.w3.org/2000/svg" preserveAspectRatio="xMidYMid"><path d="m.61.667 62.848 64.059 103.504-.764s23.118 1.788 23.118 30.211c0 28.424-19.61 30.47-19.61 30.47l-42.732 1.146 58.56 61.224S256 171.199 256 94.413 176.607 0 176.607 0L.611.667ZM0 126.313h89.65l127.598 128.36-90.652 1.76L0 126.313Z" fill="#F76927"/></svg>
